X:1
T:Rhuddlan, 87.87.87
T:Rhuddlan, 87.87.87
T:Traditional Welsh Tune
T:Public Domain Courtesy of the Cyber Hymnal™
C:Traditional Welsh Tune
Z:Public Domain
Z:Courtesy of the Cyber Hymnal™
%%score ( 1 2 ) ( 3 4 )
L:1/8
Q:1/4=110
M:4/4
K:G
V:1 treble 
V:2 treble 
V:3 bass 
V:4 bass 
V:1
 [DG]3 [DG] [DG]2 [DG]2 | [GB]2 [DG]2 [FA]2 D2 | [DF]3 [DF] [EG]2 [EG]2 | [DF]2 [CE]2 D4 | %4
 [DG]3 [DG] [EG]2 [EG]2 | [DB]2 [EG]2 [CA]2 D2 | [DF]3 [DF] [EG]2 [EG]2 | [DF]2 [^CE]2 D4 | %8
 [DB]2 [Dd]2 (B>A) G2 | [EA]2 [Cc]2 (F>E) D2 | [B,G]3 G [FB]2 [Dd]2 | [EB]2 [FA]2 G4 |] %12
V:2
 x8 | x6 D2 | x8 | x4 (C2 B,2) | x8 | x6 D2 | x8 | x4 D4 | x4 D2 G2 | x4 D2 (DC) | x3 G x4 | %11
 x4 G4 |] %12
V:3
 [G,B,]3 [G,B,] [G,B,]2 [G,B,]2 | [G,,D]2 [B,,D]2 [D,D]2 [D,F,]2 | %2
 [B,,B,]3 [B,,B,] [E,B,]2 [E,B,]2 | [B,,B,]2 [C,G,]2 [G,,G,]4 | [G,B,]3 [G,B,] [E,B,]2 [E,B,]2 | %5
 [B,,B,]2 [E,B,]2 [A,,A,]2 [D,F,]2 | [B,,B,]3 [B,,B,] [E,B,]2 [E,B,]2 | A,2 A,2 [D,F,]4 | %8
 G,2 [F,A,]2 [G,B,]2 B,2 | [C,A,]2 [A,,A,]2 (A,>G,) [D,F,]2 | [E,B,]3 [E,B,] [D,F,]2 [B,,G,]2 | %11
 [C,G,]2 [D,C]2 [G,,B,]4 |] %12
V:4
 x8 | x8 | x8 | x8 | x8 | x8 | x8 | (F,G,) A,2 x4 | G,2 x2 (E,D,) x2 | x4 D,2 x2 | x8 | x8 |] %12

